Simply-Red-Circles/scalable/apps/bookworm.svg

<svg xmlns="http://www.w3.org/2000/svg" width="48" height="48" viewBox="0 0 12.7 12.7"><path d="M6.34.07a6.29 6.29 0 0 0-6.29 6.3 6.29 6.29 0 0 0 6.3 6.28 6.29 6.29 0 0 0 6.28-6.29A6.29 6.29 0 0 0 6.34.07zM6.32 1l.01.01a5.4 5.4 0 0 1 5.4 5.4 5.4 5.4 0 0 1-5.4 5.41 5.4 5.4 0 0 1-5.41-5.4A5.4 5.4 0 0 1 6.32 1zM3.53 2.43a.4.4 0 0 0-.4.4v7.21c0 .22.19.4.4.4h5.63a.4.4 0 0 0 .4-.4V2.83a.4.4 0 0 0-.4-.4h-.98V3h.46c.18 0 .33.16.33.35v6.19c0 .19-.15.34-.33.34H4.59V2.99h2.59v-.56H3.53z" fill="#a02c2c"/><path d="M7.18 2.43V5.73l.5-.3.5.3v-3.3h-1z" fill="#c74ab4" opacity=".75"/></svg>

<?xml version="1.0" encoding="UTF-8" standalone="no"?>
<svg
   xmlns:dc="http://purl.org/dc/elements/1.1/"
   xmlns:cc="http://creativecommons.org/ns#"
   xmlns:rdf="http://www.w3.org/1999/02/22-rdf-syntax-ns#"
   xmlns:svg="http://www.w3.org/2000/svg"
   xmlns="http://www.w3.org/2000/svg"
   xmlns:sodipodi="http://sodipodi.sourceforge.net/DTD/sodipodi-0.dtd"
   xmlns:inkscape="http://www.inkscape.org/namespaces/inkscape"
   width="48"
   height="48"
   viewBox="0 0 12.7 12.7"
   version="1.1"
   id="svg6"
   sodipodi:docname="bookworm.svg"
   inkscape:version="0.92.4 (5da689c313, 2019-01-14)">
  <metadata
     id="metadata12">
    <rdf:RDF>
      <cc:Work
         rdf:about="">
        <dc:format>image/svg+xml</dc:format>
        <dc:type
           rdf:resource="http://purl.org/dc/dcmitype/StillImage" />
        <dc:title></dc:title>
      </cc:Work>
    </rdf:RDF>
  </metadata>
  <defs
     id="defs10" />
  <sodipodi:namedview
     pagecolor="#ffffff"
     bordercolor="#666666"
     borderopacity="1"
     objecttolerance="10"
     gridtolerance="10"
     guidetolerance="10"
     inkscape:pageopacity="0"
     inkscape:pageshadow="2"
     inkscape:window-width="1087"
     inkscape:window-height="480"
     id="namedview8"
     showgrid="false"
     inkscape:zoom="4.9166667"
     inkscape:cx="2.1355932"
     inkscape:cy="24"
     inkscape:window-x="0"
     inkscape:window-y="25"
     inkscape:window-maximized="0"
     inkscape:current-layer="svg6" />
  <path
     d="M 6.34,0.07 A 6.29,6.29 0 0 0 0.05,6.37 6.29,6.29 0 0 0 6.35,12.65 6.29,6.29 0 0 0 12.63,6.36 6.29,6.29 0 0 0 6.34,0.07 Z M 6.32,1 6.33,1.01 a 5.4,5.4 0 0 1 5.4,5.4 5.4,5.4 0 0 1 -5.4,5.41 A 5.4,5.4 0 0 1 0.92,6.42 5.4,5.4 0 0 1 6.32,1 Z M 3.53,2.43 a 0.4,0.4 0 0 0 -0.4,0.4 v 7.21 c 0,0.22 0.19,0.4 0.4,0.4 h 5.63 a 0.4,0.4 0 0 0 0.4,-0.4 V 2.83 A 0.4,0.4 0 0 0 9.16,2.43 H 8.18 V 3 h 0.46 c 0.18,0 0.33,0.16 0.33,0.35 v 6.19 c 0,0.19 -0.15,0.34 -0.33,0.34 H 4.59 V 2.99 H 7.18 V 2.43 Z"
     id="path2"
     inkscape:connector-curvature="0"
     style="fill:#a02c2c" />
  <path
     d="m 7.18,2.43 v 3.3 l 0.5,-0.3 0.5,0.3 v -3.3 z"
     id="path4"
     inkscape:connector-curvature="0"
     style="opacity:0.75;fill:#c74ab4" />
</svg>
